src/components/Icon/assets/person.svg

<svg width="24" height="24" viewBox="0 0 24 24" fill="none" xmlns="http://www.w3.org/2000/svg">
<path fill-rule="evenodd" clip-rule="evenodd" d="M7.50022 6.50012C7.50022 4.01512 9.51522 2.00012 12.0002 2.00012C14.4852 2.00012 16.5002 4.01512 16.5002 6.50012C16.5002 8.98512 14.4852 11.0001 12.0002 11.0001C9.51522 11.0001 7.50022 8.98512 7.50022 6.50012ZM14.5002 6.50012C14.5002 5.12212 13.3782 4.00012 12.0002 4.00012C10.6212 4.00012 9.50022 5.12212 9.50022 6.50012C9.50022 7.87812 10.6212 9.00012 12.0002 9.00012C13.3782 9.00012 14.5002 7.87812 14.5002 6.50012ZM2.06222 20.8761C2.62122 15.8821 6.85722 12.0001 12.0002 12.0001C17.1432 12.0001 21.3792 15.8821 21.9382 20.8761C22.0042 21.4731 21.5442 22.0001 20.9442 22.0001H3.05622C2.45622 22.0001 1.99622 21.4731 2.06222 20.8761ZM19.7492 20.0001C18.8572 16.5121 15.7012 14.0001 12.0002 14.0001C8.29821 14.0001 5.14221 16.5121 4.25021 20.0001H19.7492Z" fill="#65676A"/>
</svg>

<svg xmlns="http://www.w3.org/2000/svg" width="24" height="24" viewBox="0 0 24 24">
    <path fill="#65676A" fill-rule="evenodd" d="M12 12c5.143 0 9.38 3.882 9.938 8.876.066.597-.394 1.124-.994 1.124H3.056c-.6 0-1.06-.527-.994-1.124C2.622 15.882 6.857 12 12 12zm0 2c-3.702 0-6.858 2.512-7.75 6h15.5c-.893-3.488-4.049-6-7.75-6zm0-12c2.485 0 4.5 2.015 4.5 4.5S14.485 11 12 11 7.5 8.985 7.5 6.5 9.515 2 12 2zm0 2c-1.379 0-2.5 1.122-2.5 2.5S10.621 9 12 9c1.378 0 2.5-1.122 2.5-2.5S13.378 4 12 4z"/>
</svg>
